X:1
T:Lieder
T:Frühlingslied
T:Nach Felix Mendelssohn (Op. 71,2) für Männerchor gesetzt
T:Karl Klingemann
T:Frühlingslied
T:CPDL - Creative Commons Attribution Non Commercial 3.0
T:CPDL - Creative Commons Attribution Non Commercial 3.0
T:CPDL - Creative Commons Attribution Non Commercial 3.0
C:Felix Mendelssohn
Z:Karl Klingemann
Z:CPDL - Creative Commons Attribution Non Commercial 3.0
%%score [ ( 1 2 ) ( 3 4 ) ]
L:1/8
Q:1/4=110
M:3/4
K:Bb
V:1 treble-8 nm="Tenor"
V:2 treble-8 
V:3 bass nm="Bass"
V:4 bass 
V:1
!f!"^Bewegt" F2 | B3 A B>d | d2 !breath!B2 F2 | !>!f3 d B>d | !breath!c4 F2 | !>!c3 =B c>d | %6
w: 1.~~Der|Früh- ling naht mit|Brau- sen, er|rüs- tet sich zur|Tat, und|un- ter Sturm und|
w: 2.~~Tu|ab die Win- ter-|sor- gen, emp-|fan- ge frisch den|Gast; er|fliegt wie jun- ger|
w: ~3.*~Dir|ar- men Men- schen-|kin- de ist|wund und weh ums|Herz. ~Auf,|spreng' ge- trost die|
w: ~4.*~~Und|wie die Vög- lein|lei- se an-|stim- men ih- ren|Chor, ~~~so|schall' auch dei- ne|
 !>!d2 !breath!e2 e2 | !>!g3 e d>f | e2 z!p!!<(! A c>e!<)! | g3 f f>d | c3 z z2 | z6 | z6 | %13
w: Sau- sen keimt|still die grü- ne|Saat; drum wach', er-|wach', du Men- schen-|kind,|||
w: Mor- gen, er|hält nicht lan- ge|Rast. Die Knos- pe|schwillt, die Blu- me|blüht,|||
w: Rin- de, schau|mu- tig früh- ling-|wärts! **~Es schmilzt das|Eis, die Quel- le|rinnt,|||
w: Wei- se aus|tiefs- ter Brust her-|vor! **~Bist nicht ver-|armt, bist nicht al-|lein,|||
!f! F2 B3 d | f6 |!ff! B2 d3 f | !breath!b6 |!p! g2 =e2 e2 | f4 d2 | (f2 B2) c2 | d4 z2 | %21
w: Drum wach', er-|wach',|du Men- schen-|kind,|dass dich der|Lenz nicht|schla- * fend|find't,|
w: Drum wach', er-|wach',|du Men- schen-|kind,|dass dich der|Lenz nicht|schla- * fend|find't,|
w: Es schmilzt das|Eis,|die Quel- le|rinnt,|dir taut der|Schmerz und|löst _ sich|lind,|
w: Bist nicht ver-|armt,|bist nicht al-|lein,|um- ringt von|Sang und|Son- * nen|schein,|
!pp! c2 d2 e2 | (f2 e2) c2 | (B2 d2) c2 | B4 |] %25
w: dass dich der|Lenz _ nicht|schla- * fend|find't!|
w: dass dich der|Lenz _ nicht|schla- * fend|find't!|
w: dir taut der|Schmerz _ und|löst _ sich|lind.|
w: ***~um- ringt von|Sang _ und|Son- * nen-|schein!|
V:2
 F2 | F3 F F>B | B2 F2 F2 | d3 B F>B | A4 F2 | G3 G G>=B | =B2 c2 c2 | e3 c =B>B | c2 x F A>c | %9
 e3 d d>B | A3 x x2 | x6 | x6 | F2 F3 B | d6 | F2 B3 d | f6 | =e2 c2 c2 | c4 B2 | B4 A2 | B4 x2 | %21
 A2 B2 c2 | (d2 c2) G2 | (F2 B2) F2 | F4 |] %25
V:3
!f!"^*  Strophe 3 und 4 ein wenig langsamer" F,2 | D,3 C, D,>F, | F,2 !breath!D,2 D,2 | %3
w: |||
w: |||
w: |||
w: |||
 !>!B,3 F, D,>F, | !breath!F,4 F,2 | !>!E,3 D, E,>G, | !>!G,2 !breath!G,2 G,2 | !>!G,3 G, G,>G, | %8
w: |||||
w: |||||
w: |||||
w: |||||
 G,2"^** Strophe 3 und 4  a Tempo" z2 z2 | z6 | z2 z!p! F, A,>C | E3 D D>B, | A,3 z z2 | %13
w: ||dass dich der|Lenz nicht schla- fend|find't!|
w: ||die Stun- de|eilt, der Früh- ling|flieht.|
w: ||dir taut der|Schmerz und löst sich|lind.|
w: ||um- ringt von|Sang und Son- nen-|schein!|
!f! D,2 D,3 F, | B,6 |!ff! D,2 F,3 B, | !breath![B,D]6 |!p! B,2 B,2 G,2 | A,4 G,2 | F,4 F,2 | %20
w: |||||||
w: |||||||
w: |||||||
w: |||||||
 F,4 z2 |"^*** Strophe 4 bis zum Schluss "!pp! F,2 F,2 F,2 | (F,2 G,2) E,2 | (D,2 F,2) E,2 | %24
w: ||||
w: ||||
w: ||||
w: ||||
 D,4 |] %25
w: |
w: |
w: |
w: |
V:4
 F,2 | B,,3 B,, B,,>B,, | B,,2 B,,2 B,,2 | B,,3 B,, B,,>B,, | [F,,F,]4 F,2 | C,3 C, C,>G,, | %6
 G,,2 C,2 C,2 | C,3 C, G,,>G, | C,2 x2 x2 | x6 | x2 x A,, C,>E, | G,3 F, F,>D, | C,3 x x2 | %13
 B,,2 B,,3 B,, | B,,6 | B,,2 B,,3 B,, | B,,6 | C,2 C,2 C,2 | F,4 G,2 | D,4 F,2 | B,,4 x2 | %21
 E,2 D,2 C,2 | (B,,2 E,2) E,2 | F,4 [F,,F,]2 | B,,4 |] %25

